src/img/Chevron.svg

<svg width="25" height="24" viewBox="0 0 25 24" fill="none" xmlns="http://www.w3.org/2000/svg">
<path d="M12.1873 13.4689L18.3035 9.65564C18.3993 9.56485 18.5224 9.51946 18.6729 9.51946C18.8098 9.51946 18.9329 9.56485 19.0424 9.65564C19.1381 9.74643 19.186 9.85668 19.186 9.98638C19.186 10.1291 19.1381 10.2523 19.0424 10.356L12.803 14.2665C12.6252 14.4222 12.4199 14.5 12.1873 14.5C11.941 14.5 11.7289 14.4222 11.5511 14.2665L5.33227 10.356C5.23649 10.2652 5.1886 10.1485 5.1886 10.0058C5.17492 9.87614 5.21597 9.7594 5.31175 9.65564C5.42121 9.55188 5.55119 9.5 5.7017 9.5C5.83853 9.5 5.96167 9.55188 6.07114 9.65564L12.1873 13.4689Z" fill="#231D19"/>
</svg>

<svg width="25" height="24" fill="none" xmlns="http://www.w3.org/2000/svg"><path d="M12.187 13.469l6.117-3.813a.515.515 0 01.369-.137c.137 0 .26.046.37.137.095.09.143.2.143.33a.527.527 0 01-.144.37l-6.239 3.91a.907.907 0 01-.616.234.933.933 0 01-.636-.233l-6.219-3.911a.461.461 0 01-.143-.35.431.431 0 01.123-.35.548.548 0 01.39-.156c.137 0 .26.052.37.156l6.115 3.813z" fill="#231D19"/></svg>
